X:6
T:La soyote de Vendeuvre [ok]
R:
S:
N:
A:Champagne
G:
O:France
Z:<anamnese@laposte.net>
M:2/4
L:1/8
Q:1/4=135
K:C
BB BA/B/ | cB A2 | AA AG/A/ | BA G2 | BB BA/B/ | cB A2 | AA AG/A/ | BA G2-|G2 G>D | B zz>D |
B zz>D | B>B c>B | A zz>D | A zz>D | A zz>D | A>A B>A | G2-G>D | B zz>D | A zz>D |
 B>B c>B |  A zz>D | A zz>D | A zz>D | A>A B>A | G3z :|
